icons/circle/48/steam_icon_261640.svg

<svg xmlns="http://www.w3.org/2000/svg" viewBox="0 0 48 48">
 <defs>
  <linearGradient id="linearGradient4176" y1="47" x2="0" y2="1" gradientUnits="userSpaceOnUse">
   <stop style="stop-color:#efd029;stop-opacity:1"/>
   <stop offset="1" style="stop-color:#f0d53c;stop-opacity:1"/>
  </linearGradient>
  <linearGradient id="linearGradient4192" y1="47" x2="0" y2="1" gradientUnits="userSpaceOnUse">
   <stop style="stop-color:#3163bf;stop-opacity:1"/>
   <stop offset="1" style="stop-color:#386ccc;stop-opacity:1"/>
  </linearGradient>
 </defs>
 <circle cx="24" cy="24" r="22" style="fill:url(#linearGradient4176);opacity:1;fill-opacity:1;stroke:none"/>
 <g>
  <path d="m 36.31 5 c 5.859 4.062 9.688 10.831 9.688 18.5 c 0 12.426 -10.07 22.5 -22.5 22.5 c -7.669 0 -14.438 -3.828 -18.5 -9.688 c 1.037 1.822 2.306 3.499 3.781 4.969 c 4.085 3.712 9.514 5.969 15.469 5.969 c 12.703 0 23 -10.298 23 -23 c 0 -5.954 -2.256 -11.384 -5.969 -15.469 c -1.469 -1.475 -3.147 -2.744 -4.969 -3.781 z m 4.969 3.781 c 3.854 4.113 6.219 9.637 6.219 15.719 c 0 12.703 -10.297 23 -23 23 c -6.081 0 -11.606 -2.364 -15.719 -6.219 c 4.16 4.144 9.883 6.719 16.219 6.719 c 12.703 0 23 -10.298 23 -23 c 0 -6.335 -2.575 -12.06 -6.719 -16.219 z" style="opacity:0.05"/>
  <path d="m 41.28 8.781 c 3.712 4.085 5.969 9.514 5.969 15.469 c 0 12.703 -10.297 23 -23 23 c -5.954 0 -11.384 -2.256 -15.469 -5.969 c 4.113 3.854 9.637 6.219 15.719 6.219 c 12.703 0 23 -10.298 23 -23 c 0 -6.081 -2.364 -11.606 -6.219 -15.719 z" style="opacity:0.1"/>
  <path d="m 31.25 2.375 c 8.615 3.154 14.75 11.417 14.75 21.13 c 0 12.426 -10.07 22.5 -22.5 22.5 c -9.708 0 -17.971 -6.135 -21.12 -14.75 a 23 23 0 0 0 44.875 -7 a 23 23 0 0 0 -16 -21.875 z" style="opacity:0.2"/>
 </g>
 <path d="M 24.652,2 C 20.223,2.063 15.766,3.405 11.857,6.127 1.434,13.386 -1.131,27.718 6.128,38.137 c 0.637,0.915 1.332,1.766 2.07,2.559 4.121,3.9 9.679,6.297 15.801,6.297 12.702,0 22.998,-10.296 22.998,-22.998 0,-6.096 -2.376,-11.633 -6.246,-15.748 -4.418,-4.164 -10.23,-6.333 -16.1,-6.25 z m 0.045,3 c 6.419,-0.091 12.768,2.904 16.713,8.568 4.244,6.094 4.61,13.719 1.65,19.984 C 41.464,31.072 28.687,11.235 26,7.997 c -0.952,-1.147 -3.373,-1.493 -5,-1 -1.354,0.41 -2.654,1.55 -3,3 -1.022,4.278 -3.874,30.829 -3.969,31.711 C 11.956,40.347 10.095,38.588 8.59,36.427 2.278,27.367 4.507,14.899 13.57,8.587 16.969,6.22 20.846,5.054 24.697,4.999 m -2.219,4.938 c 1.049,0.038 1.646,1.311 2.521,3.061 4.22,8.441 12.551,23.548 14.04,26.24 -0.795,0.782 -1.661,1.511 -2.607,2.17 -4.971,3.462 -10.962,4.339 -16.402,2.943 0.052,-1.099 0.973,-20.593 0.973,-30.354 0,-2 -0.003,-3.660757 1,-4 0.17,-0.047 0.329,-0.066 0.479,-0.061 z" style="fill:#000;fill-opacity:0.098;stroke:none"/>
 <path d="M 24 1 A 23 23 0 0 0 1 24 23 23 0 0 0 24 47 23 23 0 0 0 47 24 23 23 0 0 0 24 1 m 0 3 A 20 20 0 0 1 44 24 20 20 0 0 1 24 44 20 20 0 0 1 4 24 20 20 0 0 1 24 4" style="fill:url(#linearGradient4192);opacity:1;fill-opacity:1;stroke:none"/>
 <path d="M 43,34 C 43,34 27.86,10.441 25,7 24.048,5.853 21.627,5.507 20,6 18.646,6.41 17.346,7.55 17,9 15.961,13.35 13,41 13,41 l 6,3 c 0,0 1,-20.963 1,-31 0,-2 0,-3.7162695 1,-4 1.363,-0.378 2,1 3,3 4.604,9.209 15,28 15,28" style="fill:url(#linearGradient4192);fill-opacity:1;stroke:none"/>
 <g>
  <path d="m 40.03 7.531 c 3.712 4.084 5.969 9.514 5.969 15.469 0 12.703 -10.297 23 -23 23 c -5.954 0 -11.384 -2.256 -15.469 -5.969 4.178 4.291 10.01 6.969 16.469 6.969 c 12.703 0 23 -10.298 23 -23 0 -6.462 -2.677 -12.291 -6.969 -16.469 z" style="opacity:0.1"/>
 </g>
</svg>

<svg xmlns="http://www.w3.org/2000/svg" viewBox="0 0 48 48">
  <defs>
    <linearGradient id="a" y1="47" x2="0" y2="1" gradientUnits="userSpaceOnUse">
      <stop stop-color="#efd029"/>
      <stop offset="1" stop-color="#f0d53c"/>
    </linearGradient>
    <linearGradient id="b" y1="47" x2="0" y2="1" gradientUnits="userSpaceOnUse">
      <stop stop-color="#3163bf"/>
      <stop offset="1" stop-color="#386ccc"/>
    </linearGradient>
  </defs>
  <circle cx="24" cy="24" r="22" fill="url(#a)"/>
  <path d="M36.31 5c5.859 4.062 9.688 10.831 9.688 18.5 0 12.426-10.07 22.5-22.5 22.5-7.669 0-14.438-3.828-18.5-9.688a23.24 23.24 0 0 0 3.781 4.969 22.923 22.923 0 0 0 15.469 5.969c12.703 0 23-10.298 23-23a22.92 22.92 0 0 0-5.969-15.469A23.216 23.216 0 0 0 36.31 5zm4.969 3.781A22.911 22.911 0 0 1 47.498 24.5c0 12.703-10.297 23-23 23a22.909 22.909 0 0 1-15.719-6.219C12.939 45.425 18.662 48 24.998 48c12.703 0 23-10.298 23-23 0-6.335-2.575-12.06-6.719-16.219z" opacity=".05"/>
  <path d="M41.28 8.781a22.923 22.923 0 0 1 5.969 15.469c0 12.703-10.297 23-23 23A22.92 22.92 0 0 1 8.78 41.281 22.911 22.911 0 0 0 24.499 47.5c12.703 0 23-10.298 23-23A22.909 22.909 0 0 0 41.28 8.781z" opacity=".1"/>
  <path d="M31.25 2.375C39.865 5.529 46 13.792 46 23.505c0 12.426-10.07 22.5-22.5 22.5-9.708 0-17.971-6.135-21.12-14.75a23 23 0 0 0 44.875-7 23 23 0 0 0-16-21.875z" opacity=".2"/>
  <path d="M24.652 2a22.893 22.893 0 0 0-12.795 4.127C1.434 13.386-1.131 27.718 6.128 38.137a23.288 23.288 0 0 0 2.07 2.559 22.912 22.912 0 0 0 15.801 6.297c12.702 0 22.998-10.296 22.998-22.998a22.91 22.91 0 0 0-6.246-15.748 23.01 23.01 0 0 0-16.1-6.25zm.045 3c6.419-.091 12.768 2.904 16.713 8.568 4.244 6.094 4.61 13.719 1.65 19.984C41.464 31.072 28.687 11.235 26 7.997c-.952-1.147-3.373-1.493-5-1-1.354.41-2.654 1.55-3 3-1.022 4.278-3.874 30.829-3.969 31.711a19.914 19.914 0 0 1-5.441-5.281c-6.312-9.06-4.083-21.528 4.98-27.84a19.91 19.91 0 0 1 11.127-3.588m-2.219 4.938c1.049.038 1.646 1.311 2.521 3.061 4.22 8.441 12.551 23.548 14.04 26.24a20.1 20.1 0 0 1-2.607 2.17c-4.971 3.462-10.962 4.339-16.402 2.943.052-1.099.973-20.593.973-30.354 0-2-.003-3.66 1-4a1.59 1.59 0 0 1 .479-.061z" fill-opacity=".098"/>
  <path d="M24 1A23 23 0 0 0 1 24a23 23 0 0 0 23 23 23 23 0 0 0 23-23A23 23 0 0 0 24 1m0 3a20 20 0 0 1 20 20 20 20 0 0 1-20 20A20 20 0 0 1 4 24 20 20 0 0 1 24 4" fill="url(#b)"/>
  <path d="M43 34S27.86 10.441 25 7c-.952-1.147-3.373-1.493-5-1-1.354.41-2.654 1.55-3 3-1.039 4.35-4 32-4 32l6 3s1-20.963 1-31c0-2 0-3.716 1-4 1.363-.378 2 1 3 3 4.604 9.209 15 28 15 28" fill="url(#b)"/>
  <g>
    <path d="M40.03 7.531A22.922 22.922 0 0 1 45.999 23c0 12.703-10.297 23-23 23A22.92 22.92 0 0 1 7.53 40.031C11.708 44.322 17.54 47 23.999 47c12.703 0 23-10.298 23-23 0-6.462-2.677-12.291-6.969-16.469z" opacity=".1"/>
  </g>
</svg>
